frontend/public/Images/Brand/p5_redline.svg

<svg width="336" height="30" viewBox="0 0 336 30" fill="none" xmlns="http://www.w3.org/2000/svg">
<path d="M0 0.00125122C13.3709 6.57932 27.2151 10.9979 41.083 14.9846L51.5194 17.7421L62.0031 20.1009C68.9844 21.8285 76.0366 22.7587 83.0652 24.0212C111.251 28.6391 139.625 30.2338 167.953 29.968C182.105 29.4032 196.28 29.1042 210.408 27.4431C217.461 26.6458 224.536 26.2139 231.565 25.0843C238.594 24.0212 245.622 22.8916 252.651 21.6956L263.182 19.9016C266.684 19.1375 270.187 18.4398 273.666 17.6092L294.586 12.7587C308.477 9.00457 322.274 4.71886 336 0.00125122C321.848 1.06437 307.862 3.19062 293.828 4.68564L272.79 6.81188C269.288 7.14411 265.785 7.576 262.306 8.0079L251.799 8.83846C244.794 9.3368 237.789 9.90158 230.808 10.5328C223.803 11.0976 216.798 11.3302 209.817 11.762C195.83 12.8252 181.821 12.8916 167.834 13.4232C139.815 13.689 111.842 13.091 83.8698 11.1308C76.8886 10.5993 69.8837 10.0677 62.9024 9.30358L52.4187 8.27368L41.9349 6.91155C27.9251 5.2172 13.9625 2.99128 0 0.00125122Z" fill="#E50012"/>
</svg>

<svg width="336" height="30" fill="none" xmlns="http://www.w3.org/2000/svg"><path d="M0 .001C13.37 6.58 27.215 10.998 41.083 14.985l10.436 2.757 10.484 2.359c6.981 1.727 14.034 2.658 21.062 3.92 28.186 4.618 56.56 6.213 84.888 5.947 14.152-.565 28.327-.864 42.455-2.525 7.053-.797 14.128-1.23 21.157-2.359a1158.677 1158.677 0 0021.086-3.388l10.531-1.794c3.502-.765 7.005-1.462 10.484-2.293l20.92-4.85C308.477 9.005 322.274 4.719 336 0c-14.152 1.063-28.138 3.19-42.172 4.685L272.79 6.812c-3.502.332-7.005.764-10.484 1.196l-10.507.83a1100.12 1100.12 0 00-20.991 1.695c-7.005.565-14.01.797-20.991 1.229-13.987 1.063-27.996 1.13-41.983 1.661-28.019.266-55.992-.332-83.964-2.292-6.981-.532-13.986-1.063-20.968-1.827L52.42 8.274 41.935 6.912C27.925 5.217 13.962 2.992 0 .002z" fill="#E50012"/></svg>
